X:1
T:Resurrection, 76.76 D
T:Alice Nevin, 1879
T:Resurrection, 76.76 D
T:Public Domain
C:Alice Nevin, 1879
Z:Public Domain
%%score ( 1 2 ) ( 3 4 )
L:1/8
M:4/4
K:G
V:1 treble 
V:2 treble 
V:3 bass 
V:4 bass 
V:1
 D2 | G2 D2 [DG]2 [DA]2 | [DB]4 [GB]2 [Gd]2 | [Fc]2 [GB]2 [FA]2 [EG]2 | [FA]6 D2 | %5
 G2 D2 [DG]2 [DA]2 | [DB]4 [GB]2 [GB]2 | [FA]2 [Fd]2 [Gd]2 [G^c]2 | [Fd]6 [DA]2 | %9
 [DA]2 [DA]2 [DG]2 [DF]2 | [DG]4 [DG]2 [DG]2 | [Dc]2 [DB]2 [EA]2 [EG]2 | [DF]6 D2 | %13
 G2 D2 [DG]2 [DA]2 | [DB]4 [GB]2 [GB]2 | [EA]2 [Ac]2 [GB]2 [FA]2 | [DG]6 |] %17
V:2
 D2 | G2 D2 x4 | x8 | x8 | x6 D2 | G2 D2 x4 | x8 | x8 | x8 | x8 | x8 | x8 | x6 D2 | G2 D2 x4 | x8 | %15
 x8 | x6 |] %17
V:3
 D,2 | G,2 D,2 [B,,G,]2 [D,F,]2 | G,4 [G,D]2 [B,D]2 | [A,D]2 [G,D]2 [D,D]2 [E,B,]2 | [D,D]6 D,2 | %5
 G,2 D,2 [B,,G,]2 [D,F,]2 | G,4 [G,D]2 [G,D]2 | [A,D]2 [A,D]2 A,2 [A,,A,]2 | [D,A,]6 [D,F,]2 | %9
 [D,F,]2 [C,F,]2 [B,,G,]2 [A,,C]2 | [G,,B,]4 [G,,B,]2 [G,B,]2 | [F,A,]2 G,2 [C,C]2 [^C,B,]2 | %12
 [F,A,]6 D,2 | G,2 D,2 [B,,G,]2 [D,F,]2 | G,4 [G,D]2 [G,D]2 | [C,C]2 [A,,E]2 [D,D]2 [D,C]2 | %16
 [G,B,]6 |] %17
V:4
 D,2 | G,2 D,2 x4 | G,4 x4 | x8 | x6 D,2 | G,2 D,2 x4 | G,4 x4 | x4 A,2 x2 | x8 | x8 | x8 | %11
 x2 G,2 x4 | x6 D,2 | G,2 D,2 x4 | G,4 x4 | x8 | x6 |] %17

